!!!!SEGMENT: pl-wtm--r-992-2_krogulski-jozef-wlladysllaw--ziemi-wszechtworow.krn
!!!cenid: 18xx:2081
!!!COM: Krogulski, Józef Władysław
!!!COM-rismid: pe30001797
!!!CDT: 1815/10/04-1842/01/09
!!!CNT: Polish
!!!OTL: Ziemi wszechtworów
!!!PDT:
!!!AGN: Secular
!!!SMS-siglum: PL-Wtm
!!!SMS-shelfmark: R 992/2
!!!SMS-shelfwork: W
!!!SMS-variant:
!!!SMS-altvar:
!!!NIFC-rismid: 1001083925
!!!URL-scan: http://repozytorium.nifc.pl/skany/pl-wtm-nut--r992
!!!ONB-nifc: UWAGA: w zbiorze 1. Fantaisie et vatiations (do skanu 0032) i 2. Ziemi wszechtworów (skan 0033)
**kern	**kern	**dynam	**kern	**text
*part2	*part2	*part2	*part1	*part1
*staff3	*staff2	*	*staff1	*staff1
*	*I"[Pianoforte]	*	*I"[Voce]	*
*	*I'[pf]	*	*I'[V]	*
*clefF4	*clefG2	*	*clefG2	*
*k[f#]	*k[f#]	*	*k[f#]	*
*G:	*G:	*	*G:	*
*M3/4	*M3/4	*	*M3/4	*
*>[A,B,B1,B,B2,C]	*>[A,B,B1,B,B2,C]	*	*>[A,B,B1,B,B2,C]	*
=1	=1	=1	=1	=1
*>A	*>A	*	*>A	*
*	*tremolo	*	*	*
2.r	16g/LL	pp	2.ryy	.
.	16g/	.	.	.
.	16g/	.	.	.
.	16g/	.	.	.
.	16g/	.	.	.
.	16g/	.	.	.
.	16g/	.	.	.
.	16g/	.	.	.
.	16g/	.	.	.
.	16g/	.	.	.
.	16g/	.	.	.
.	16g/JJ	.	.	.
=2	=2	=2	=2	=2
*	*rep	*	*	*
8B\L 8d#X	16g/LL	.	2.ryy	.
.	16g/	.	.	.
8c\J 8e	16g/	.	.	.
.	16g/	.	.	.
4r	16g/	.	.	.
.	16g/	.	.	.
.	16g/	.	.	.
.	16g/	.	.	.
4r	16g/	.	.	.
.	16g/	.	.	.
.	16g/	.	.	.
.	16g/JJ	.	.	.
*	*Xrep	*	*	*
=3	=3	=3	=3	=3
*	*rep	*	*	*
8A#X\L 8c#X	16g/LL	.	2.ryy	.
.	16g/	.	.	.
8B\J 8d	16g/	.	.	.
.	16g/	.	.	.
4r	16g/	.	.	.
.	16g/	.	.	.
.	16g/	.	.	.
.	16g/	.	.	.
4r	16g/	.	.	.
.	16g/	.	.	.
.	16g/	.	.	.
.	16g/JJ	.	.	.
*	*Xrep	*	*	*
*	*Xtremolo	*	*	*
=4	=4	=4	=4	=4
4cn\ 4e	16a/LL	.	2.ryy	.
.	16g#X/	.	.	.
.	16b/	.	.	.
.	16a/JJ	.	.	.
4r	16g#/LL	.	.	.
.	16a/	.	.	.
.	16cc/	.	.	.
.	16dd/JJ	.	.	.
!LO:TX:t=P:problem:korekta	!	!	!	!
4C\ 4E 4A	16ff#/LL	.	.	.
.	16ee/	.	.	.
.	16cc/	.	.	.
.	16a/JJ	.	.	.
=5	=5	=5	=5	=5
4D\ 4A 4c	16g/LL	.	2.ryy	.
.	16f#/	.	.	.
.	16b/	.	.	.
.	16a/JJ	.	.	.
4r	16g#X/LL	.	.	.
.	16a/	.	.	.
.	16gn/	.	.	.
.	16f#/JJ	.	.	.
4D\	16e#X/LL	.	.	.
.	16f#/	.	.	.
.	16en/	.	.	.
.	16d/JJ	.	.	.
=6	=6	=6	=6	=6
*tremolo	*	*	*	*
(16GG/LL	4B/ 4d	.	2.ryy	.
16FF#/	.	.	.	.
16GG/	.	.	.	.
16FF#/	.	.	.	.
16GG/	4B/ 4d 4g	.	.	.
16FF#/	.	.	.	.
16GG/	.	.	.	.
16FF#/	.	.	.	.
16GG/	8.d/L 8.f#	.	.	.
16FF#/	.	.	.	.
16GG/	.	.	.	.
16FF#/JJ)	16c/Jk 16e	.	.	.
=7	=7	=7	=7	=7
*	*^	*	*	*
*rep	*	*	*	*	*
(16GG/LL	8B/L 8d	4ryy	.	2.ryy	.
16FF#/	.	.	.	.	.
16GG/	8A#X/J 8c#X	.	.	.	.
16FF#/	.	.	.	.	.
16GG/	4cn/	8An\L	.	.	.
16FF#/	.	.	.	.	.
16GG/	.	16.G\L	.	.	.
16FF#/	.	.	.	.	.
.	.	32F#\JJk	.	.	.
16GG/	8d/L	8E\L	.	.	.
16FF#/	.	.	.	.	.
16GG/	8c/J	8C\J	.	.	.
16FF#/JJ)	.	.	.	.	.
*Xrep	*	*	*	*	*
*	*v	*v	*	*	*
*	*clefF4	*	*	*
=8	=8	=8	=8	=8
*rep	*	*	*	*
(16GG/LL	4G\ 4B	.	2.ryy	.
16FF#/	.	.	.	.
16GG/	.	.	.	.
16FF#/	.	.	.	.
16GG/	4G\ 4B	.	.	.
16FF#/	.	.	.	.
16GG/	.	.	.	.
16FF#/	.	.	.	.
16GG/	8.F#\L 8.d	.	.	.
16FF#/	.	.	.	.
16GG/	.	.	.	.
16FF#/JJ)	16E\Jk 16c	.	.	.
*Xrep	*	*	*	*
=9	=9	=9	=9	=9
*	*^	*	*	*
*rep	*	*	*	*	*
(16GG/LL	8D\L 8B	4ryy	.	2.ryy	.
16FF#/	.	.	.	.	.
16GG/	8C#X\J 8A#X	.	.	.	.
16FF#/	.	.	.	.	.
16GG/	8An/L	4.Cn\	.	.	.
16FF#/	.	.	.	.	.
16GG/	16G/L	.	.	.	.
16FF#/	16F#/JJ	.	.	.	.
16GG/	8E/L	.	.	.	.
16FF#/	.	.	.	.	.
16GG/	8F#/J	8C\	.	.	.
16FF#/JJ)	.	.	.	.	.
*Xrep	*	*	*	*	*
=10	=10	=10	=10	=10	=10
*rep	*	*	*	*	*
(16GG/LL	4.BB/ 4.G	2ryy	.	2.ryy	.
16FF#/	.	.	.	.	.
16GG/	.	.	.	.	.
16FF#/	.	.	.	.	.
16GG/	.	.	.	.	.
16FF#/	.	.	.	.	.
16GG/	8BB/ 8G	.	.	.	.
16FF#/	.	.	.	.	.
16GG/	8E/L	4C\	.	.	.
16FF#/	.	.	.	.	.
16GG/	8F#/J	.	.	.	.
16FF#/JJ)	.	.	.	.	.
*Xrep	*	*	*	*	*
=11	=11	=11	=11	=11	=11
*rep	*rep	*rep	*	*	*
(16GG/LL	4.BB/ 4.G	2ryy	.	2.ryy	.
16FF#/	.	.	.	.	.
16GG/	.	.	.	.	.
16FF#/	.	.	.	.	.
16GG/	.	.	.	.	.
16FF#/	.	.	.	.	.
16GG/	8BB/ 8G	.	.	.	.
16FF#/	.	.	.	.	.
16GG/	8E/L	4C\	.	.	.
16FF#/	.	.	.	.	.
16GG/	8F#/J	.	.	.	.
16FF#/JJ)	.	.	.	.	.
*Xrep	*Xrep	*Xrep	*	*	*
*Xtremolo	*	*	*	*	*
*	*v	*v	*	*	*
!!LO:LB:g=original
=12	=12	=12	=12	=12
16GG/LL	8BB\ 8D 8G	.	2.r	.
16FF#/	.	.	.	.
16AA/	8r	.	.	.
16EE/JJ	.	.	.	.
16DD/LL	8BB\ 8D 8G	.	.	.
16CC#X/	.	.	.	.
16DD/	8r	.	.	.
16CCn/JJ	.	.	.	.
16BBB/LL	8BB\ 8D 8G	.	.	.
16AAA#X/	.	.	.	.
16BBB/	8r	.	.	.
16AAAn/JJ	.	.	.	.
=13	=13	=13	=13	=13
2GGG/	2BB\ 2D 2G	.	2.r	.
4r	4r	.	.	.
=14!|:	=14!|:	=14!|:	=14!|:	=14!|:
*	*clefG2	*	*	*
*>B	*>B	*	*>B	*
!	!LO:TX:t=P:problem:brak klucza wiolinowego	!	!	!
16GG/LL	2d/ 2g 2b	.	2b/	Zie-
16FF#/	.	.	.	.
16GG/	.	.	.	.
16FF#/JJ	.	.	.	.
16GG/LL	.	.	.	.
16AA/	.	.	.	.
16BB/	.	.	.	.
16C/JJ	.	.	.	.
8D\L	8.c/L 8.f# 8.a	.	8.a/	-mio
8D#X\J	.	.	.	.
.	16B/Jk 16f# 16b	.	16b/	wszech-
=15	=15	=15	=15	=15
4E\	4B/ 4f# 4a	.	4a/	-two-
8E\	8B/ 8e 8g	.	8g/	-rów
8r	8r	.	8r	.
4D/	4e/ 4g#X 4b	.	4b/	i
=16	=16	=16	=16	=16
!LO:TX:t=P:problem:korekta	!LO:TX:t=P:problem:korekta	!	!LO:TX:t=P:problem:korekta	!
2C/	2e/ 2a 2ee	.	[4ee/	mat-
!	!	!	!LO:TX:t=P:problem:korekta	!
.	.	.	8ee/L]	.
!	!	!	!LO:TX:t=P:problem:korekta	!
.	.	.	16ff#/L	.
.	.	.	16ee/JJ	.
!	!LO:TX:t=P:problem:korekta	!	!	!
8AA/L	8e/L 8a 8cc	.	16dd/LL	-ko
.	.	.	16cc/JJ	.
8C/J	8c/J 8e 8a	.	16b/LL	i
.	.	.	16a/JJ	.
=17	=17	=17	=17	=17
4D/	4B/ 4d 4g	.	4g/	gro-
8DD/L	4A/ 4d 4f#	.	4f#/	-bie
8D/	.	.	.	.
8C#X/	4r	.	4r	.
8D/J	.	.	.	.
=18	=18	=18	=18	=18
*	*^	*	*	*
4D#X\	4b/	4f#\ 4a	.	4b/	To
4E\	8cc/L	4e\ 4g	.	(<8cc/L	ziar-
.	8b/J	.	.	8b/J)	.
4D#\	8cc/L	4f#\ 4a	.	(<8cc/L	-no
.	8b/J	.	.	8b/J)	.
*	*v	*v	*	*	*
=19	=19	=19	=19	=19
4E\	2g\ 2b 2gg	.	4.gg\	Kę-
!LO:TX:t=P:problem:mixed beam	!	!	!	!
8EE/L	.	.	.	.
8E\	.	.	8b/	-dy
!	!	!	!LO:TX:t=P:problem:korekta tekstu	!
8F#\	8a\L 8dd#X 8ff#	.	8ff#/	le-
8G\J	8b\J 8ee	.	8ee/	-dwie
=20	=20	=20	=20	=20
16A\LL	2f#\ 2a 2dd	.	2dd/	ży-
16G#X\	.	.	.	.
16B\	.	.	.	.
16A\JJ	.	.	.	.
16G#\LL	.	.	.	.
16A\	.	.	.	.
16F#\	.	.	.	.
16D\JJ	.	.	.	.
16AA/LL	4e\ 4a 4cc#X	.	4cc#X/	-cie
16GGn/	.	.	.	.
16FF#/	.	.	.	.
16EE/JJ	.	.	.	.
=21	=21	=21	=21	=21
4DD/	4g\ 4cc#X 4ee	.	4ee\	tle-
8D\L	4f#\ 4dd	.	4dd\	-je
8C#X\	.	.	.	.
!LO:TX:t=P:problem:korekta	!	!	!	!
8D\	4r	.	4r	.
8C#\J	.	.	.	.
!!LO:LB:g=original
=22	=22	=22	=22	=22
*^	*^	*	*	*
4r	4D\	4dd/	8a\L 8cc	.	4dd\	Przy-
.	.	.	8g#X\ 8b	.	.	.
!	!	!LO:TX:t=P:problem:korekta	!	!	!	!
4r	4D\	4dd/	8f#\ 8a	.	4dd\	-szłych
!	!	!LO:TX:t=P:problem:korekta	!	!	!	!
.	.	.	8e\J 8gn	.	.	.
!	!	!LO:TX:t=P:problem:korekta	!	!	!	!
8d/L	4D\	4dd/	8f#\L	.	4dd\	o-
8c/J	.	.	8e\J	.	.	.
*v	*v	*	*	*	*	*
*	*v	*v	*	*	*
=23	=23	=23	=23	=23
4D\ 4B	4d\ 4dd	.	(>8dd\L	-wo-
.	.	.	8gg\J)	.
4D\ 4G	4d\ 4b	.	4dd\	-ców
4D\ 4G	4d\ 4b	.	8r	.
.	.	.	8b\	i
=24	=24	=24	=24	=24
*	*^	*	*	*
4D\ 4F#	8b/L	4d\	.	(>8dd\L	cie-
.	8a/J	.	.	8cc\J)	.
!LO:TX:t=P:problem:korekta	!	!	!	!	!
4D\ 4F#	4a/	4d\	.	4cc\	-nia
4D\ 4G	4g/	4d\	.	4b\	na-
*	*v	*v	*	*	*
=25	=25	=25	=25	=25
!	!LO:TX:t=P:problem:korekta	!	!	!
4D\ 4d	4g/ 4b	.	4b/	-dzie-
!LO:TX:t=P:problem:korekta	!	!	!	!
8D\L	4d/ 4f# 4a	.	4a/	-je
8C\	.	.	.	.
8BB\	4r	.	4r	.
8AA\J	.	.	.	.
=26	=26	=26	=26	=26
2.GG/	4g/ 4b	.	(>4b\	Po-
.	4f#/ 4a	.	4cc\	.
.	4fn/ 4b	.	4dd\)	.
=27	=27	=27	=27	=27
2.C/	2e/ 2g 2cc	.	2ee\	-wie-
.	4c/ 4e 4a	.	8cc\L	-rzam
.	.	.	8a\J	.
=28	=28	=28	=28	=28
*^	*^	*	*	*
4B/	2D\	2g/	4d\	.	(<2g/	To-
4A#X/	.	.	4c#X\	.	.	.
!	!	!LO:TX:t=P:problem:korekta	!	!	!	!
4An/	4F#\	4d/	4cn\	.	4a/)	.
*	*	*v	*v	*	*	*
=29	=29	=29	=29	=29	=29
!	!	!	!	!LO:TX:t=P:problem:korekta	!
4G/	8G\L	2B/ 2d	.	2b\	-bie
.	8BB\	.	.	.	.
4r	8C\	.	.	.	.
.	8D\	.	.	.	.
4r	8E\	4r	.	4r	.
.	8F#\J	.	.	.	.
=30	=30	=30	=30	=30	=30
*	*	*^	*	*	*
4B/	2.G\	(4dd/	2.g\	.	(>4dd\	Po-
4c/	.	4ee/	.	.	4ee\	.
4d/	.	4ff#/)	.	.	4ff#\)	.
*v	*v	*	*	*	*	*
*	*v	*v	*	*	*
=31	=31	=31	=31	=31
!LO:TX:t=P:problem:korekta	!	!	!	!
2c\ 2e 2g>	4.gg/	.	(>4.gg\	-wie-
.	8ee/L	.	8ee\)	.
8e>\L	8cc/J	.	(>8cc\L	-rzam
!	!LO:N:vis=4	!	!	!
8e>\J	8a/	.	8a\J)	.
=32	=32	=32	=32	=32
*^	*^	*	*	*
4B/	2D\	2g/	4d\	.	(<2g/	To-
4A#X/	.	.	4c#X\	.	.	.
4An/	4D\	4f#/	4cn\	.	4f#/)	[[bie]]-
*	*	*v	*v	*	*	*
=33	=33	=33	=33	=33	=33
!	!	!LO:TX:t=P:problem:korekta	!	!LO:TX:t=P:problem:korekta	!
4G/	4GG\	8B/L 8g	.	2g/	-bie
.	.	8B/ 8d	.	.	.
4r	4ryy	8A#X/ 8c#X	.	.	.
.	.	8B/ 8d	.	.	.
4r	4ryy	8cn/ 8e	.	4r	.
.	.	8G/J	.	.	.
*v	*v	*	*	*	*
=34	=34	=34	=34	=34
*	*clefF4	*	*	*
*	*^	*	*	*
4D\	8c/L	8A\L	.	2.r	.
.	8B/	8G\	.	.	.
4D\	8A/	8F#\	.	.	.
.	8G#X/J	8E#X\J	.	.	.
4D\	8A/L	8F#\L	.	.	.
.	8c/J	16En\L	.	.	.
.	.	16F#\JJ	.	.	.
*	*v	*v	*	*	*
!!LO:LB:g=original
=35	=35	=35	=35	=35
8GG/L	4G\ 4B	.	2.ryy	.
8C#X/	.	.	.	.
8E/	4r	.	.	.
8D/	.	.	.	.
8BB/	4r	.	.	.
8GG/J	.	.	.	.
=36	=36	=36	=36	=36
*	*^	*	*	*
*	*clefG2	*	*	*	*
!LO:TX:t=P:problem:korekta	!	!	!	!	!
4DD/	8c/L 8a	2ryy	.	2.ryy	.
.	8B/ 8g	.	.	.	.
4D\	8A/ 8f#	.	.	.	.
.	8G#X/J 8e#X	.	.	.	.
4D\	8f#/L	8A\L	.	.	.
.	16e#/L	8cn\J	.	.	.
.	16f#/JJ	.	.	.	.
*	*v	*v	*	*	*
=37	=37	=37	=37	=37
*tremolo	*	*	*	*
!	!LO:TX:t=P:problem:korekta	!	!	!
(16GG/LL	4B/ 4g	.	2.ryy	.
16FF#/	.	.	.	.
16GG/	.	.	.	.
16FF#/	.	.	.	.
16GG/	4B/ 4d 4g	.	.	.
16FF#/	.	.	.	.
16GG/	.	.	.	.
16FF#/	.	.	.	.
16GG/	8.d/L 8.f#	.	.	.
16FF#/	.	.	.	.
16GG/	.	.	.	.
16FF#/JJ)	16c/Jk 16e	.	.	.
*Xtremolo	*	*	*	*
=38	=38	=38	=38	=38
!	!LO:TX:t=P:problem:szlaczek. powtórka taktu?	!	!	!
2.ryy	2.ryy	.	2.ryy	.
=39||	=39||	=39||	=39||	=39||
!LO:TX:a:t=No 1.	!	!	!	!
*>B1	*>B1	*	*>B1	*
*	*clefF4	*	*	*
2GGG/	2BB\ 2D 2G	.	2.ryy	.
4r	4r	.	.	.
=40:|!	=40:|!	=40:|!	=40:|!	=40:|!
!LO:TX:a:t=No 2.	!	!	!	!
*>B2	*>B2	*	*>B2	*
2GGG/	2BB\ 2D 2G	.	2.ryy	.
4r	4r	.	.	.
=41	=41	=41	=41	=41
*>C	*>C	*	*>C	*
*	*clefG2	*	*	*
!LO:TX:b:t=P:problem:szlaczek.	!	!	!	!
4G\	4g\ 4b 4dd 4gg	.	2.ryy	.
4D\	4g\ 4b 4dd 4gg	.	.	.
4BB\	4g\ 4b 4dd 4gg	.	.	.
=42	=42	=42	=42	=42
4GG/	4g\ 4b 4dd 4gg	.	2.ryy	.
4r	4r	.	.	.
4r	4r	.	.	.
=43	=43	=43	=43	=43
4GG/	4b\ 4dd 4gg 4bb	.	2.ryy	.
4r	4r	.	.	.
4r	4r	.	.	.
=44	=44	=44	=44	=44
2GG;/	2g;\ 2b 2dd 2gg	.	2.ryy	.
4r	4r	.	.	.
!!LO:PB:g=original
==	==	==	==	==
*-	*-	*-	*-	*-
!!!system-decoration: s1[(s2,s3)]
!!!RDF**kern: < = below
!!!RDF**kern: > = above
!!!ENC: Marta Chmielewska
!!!END: 2021-05-26
!!!ENC: Katarzyna Serwa
!!!END: 2021-05-12
